yogo/img/star3.svg

<svg width="73" height="62" viewBox="0 0 73 62" fill="none" xmlns="http://www.w3.org/2000/svg">
<path d="M54.6277 -7.62939e-06C46.0952 14.5283 41.3809 21.7733 36.6277 21.7733C31.8744 21.7733 27.1601 14.5283 18.6666 -7.62939e-06C27.1601 14.5283 31.2121 22.195 28.8355 26.22C26.4588 30.245 17.6926 30.6667 0.666626 30.6667C18.316 30.6667 27.0822 31.0883 29.0692 35.535C30.9394 39.675 26.8874 47.3033 18.6666 61.3333C27.1991 46.805 31.9134 39.56 36.6666 39.56C41.4199 39.56 46.1342 46.805 54.6666 61.3333C45.6277 45.885 41.6536 38.2183 45.0043 34.385C47.9653 31.0117 56.6926 30.6667 72.6666 30.6667C54.6666 30.6667 45.9004 30.2067 44.1471 25.4917C42.5497 21.275 46.6017 13.685 54.6277 -7.62939e-06Z" fill="white"/>
</svg>

<svg xmlns="http://www.w3.org/2000/svg" width="73" height="62" fill="none"><path fill="#fff" d="M54.628 0c-8.533 14.528-13.247 21.773-18 21.773S27.16 14.528 18.667 0c8.493 14.528 12.545 22.195 10.168 26.22-2.376 4.025-11.142 4.447-28.168 4.447 17.649 0 26.415.421 28.402 4.868 1.87 4.14-2.182 11.768-10.402 25.798 8.532-14.528 13.246-21.773 18-21.773s9.467 7.245 18 21.773c-9.04-15.448-13.013-23.115-9.663-26.948 2.961-3.373 11.689-3.718 27.663-3.718-18 0-26.767-.46-28.52-5.175C42.55 21.275 46.602 13.685 54.627 0"/></svg>
